X: 4
T: Berwick Jockey, The
M: 9/8
L: 1/8
R: slip jig
R: hop jig
K: Dmaj
|: A2 A AGF AGF | A2 A AGF Bcd | ABA AGF AGF | B2 E E2 F G2 B :|
A2 D D2 d AGF | A2 D D2 E F2 B | A2 D D2 d AGF | G2 E E2 F G2 B |
ABc ded cBA | d2 F F2 G A2 B | ABc ded cBA | B2 E E2 F G2 B |]
